build/img/icon__cart.svg

<svg width="27" height="27" viewBox="0 0 27 27" fill="none" xmlns="http://www.w3.org/2000/svg">
<path d="M13.5 13.4994C13.7911 13.4994 14.0273 13.2631 14.0273 12.972C14.0273 12.681 13.7911 12.4447 13.5 12.4447C13.2089 12.4447 12.9727 12.681 12.9727 12.972C12.9727 13.2631 13.2089 13.4994 13.5 13.4994Z" fill="#0B9EC7"/>
<path d="M24.8906 9.28064H21.772L16.9749 2.6808C16.5439 1.94232 15.5947 1.67947 14.8408 2.09702C14.0766 2.52157 13.8018 3.48418 14.2265 4.24862C14.2387 4.27025 14.2521 4.29106 14.2671 4.31083L18.0298 9.28064H8.97018L12.7329 4.31083C12.7477 4.29106 12.7613 4.27025 12.7734 4.24862C13.1972 3.48603 12.9255 2.5226 12.1585 2.09661C11.4063 1.67988 10.457 1.94252 10.0253 2.68039L5.2279 9.28064H2.10937C0.946333 9.28064 0 10.227 0 11.39C0 12.3073 0.595321 13.1059 1.43392 13.3886C1.52332 13.4578 1.63497 13.4994 1.7565 13.4994C1.78081 13.4994 1.80368 13.5008 1.82757 13.5041C2.05458 13.5346 2.23441 13.7068 2.27561 13.9322L4.0696 23.8022C4.20659 24.5547 4.86124 25.1009 5.62629 25.1009H21.3737C22.1387 25.1009 22.7934 24.5547 22.9303 23.802L24.7243 13.9324C24.7655 13.7068 24.9456 13.5346 25.1734 13.5041C25.1965 13.5008 25.2193 13.4994 25.2434 13.4994C25.3658 13.4994 25.4783 13.4574 25.5677 13.3873C26.4069 13.1028 27 12.3057 27 11.39C27 10.227 26.0536 9.28064 24.8906 9.28064ZM15.1341 3.70871C15.0136 3.45925 15.1071 3.15541 15.3523 3.01946C15.6075 2.87794 15.9293 2.9692 16.0699 3.22277C16.0802 3.24172 16.092 3.25985 16.1046 3.27716L20.4681 9.28064H19.3524L15.1341 3.70871ZM10.8954 3.27736C10.908 3.26006 10.9193 3.24214 10.9298 3.2236C11.0709 2.96981 11.3929 2.87835 11.6471 3.01905C11.8926 3.15541 11.9865 3.45884 11.8658 3.70871L7.6475 9.28064H6.53184L10.8954 3.27736ZM24.8906 12.4447H15.6093C15.3181 12.4447 15.082 12.6808 15.082 12.972C15.082 13.2633 15.3181 13.494 15.6093 13.494H23.7514C23.7238 13.5727 23.702 13.6543 23.6868 13.7383L21.8926 23.6133C21.847 23.8642 21.6287 24.0463 21.3737 24.0463H5.62629C5.37107 24.0463 5.15292 23.8642 5.10719 23.6135L3.3132 13.7435C3.29795 13.6594 3.27612 13.5779 3.24851 13.4994H11.3906C11.6819 13.4994 11.9179 13.2633 11.9179 12.972C11.9179 12.6808 11.6819 12.4447 11.3906 12.4447H2.10937C1.52291 12.4447 1.05469 11.9668 1.05469 11.39C1.05469 10.8085 1.52785 10.3353 2.10937 10.3353H24.8906C25.4721 10.3353 25.9453 10.8085 25.9453 11.39C25.9453 11.9756 25.4661 12.4447 24.8906 12.4447Z" fill="#0B9EC7"/>
<path d="M18.7734 22.4642C19.6458 22.4642 20.3555 21.7546 20.3555 20.8822V16.6635C20.3555 15.7894 19.6475 15.0814 18.7734 15.0814C17.9011 15.0814 17.1914 15.7911 17.1914 16.6635V20.8822C17.1914 21.7546 17.9011 22.4642 18.7734 22.4642ZM18.2461 16.6635C18.2461 16.3726 18.4826 16.1361 18.7734 16.1361C19.0645 16.1361 19.3008 16.3724 19.3008 16.6635V20.8822C19.3008 21.1731 19.0643 21.4095 18.7734 21.4095C18.4826 21.4095 18.2461 21.1731 18.2461 20.8822V16.6635Z" fill="#0B9EC7"/>
<path d="M13.5 15.0814C12.6276 15.0814 11.918 15.7911 11.918 16.6635V20.8822C11.918 21.7546 12.6276 22.4642 13.5 22.4642C14.3724 22.4642 15.082 21.7546 15.082 20.8822V16.6635C15.082 15.7894 14.374 15.0814 13.5 15.0814ZM14.0273 20.8822C14.0273 21.1731 13.7909 21.4095 13.5 21.4095C13.2091 21.4095 12.9727 21.1731 12.9727 20.8822V16.6635C12.9727 16.3726 13.2091 16.1361 13.5 16.1361C13.7911 16.1361 14.0273 16.3724 14.0273 16.6635V20.8822Z" fill="#0B9EC7"/>
<path d="M8.22656 15.0814C7.35418 15.0814 6.64453 15.7911 6.64453 16.6635V20.8822C6.64453 21.7546 7.35418 22.4642 8.22656 22.4642C9.09894 22.4642 9.80859 21.7546 9.80859 20.8822V16.6635C9.80859 15.7894 9.10059 15.0814 8.22656 15.0814ZM8.7539 20.8822C8.7539 21.1731 8.51742 21.4095 8.22656 21.4095C7.9357 21.4095 7.69922 21.1731 7.69922 20.8822V16.6635C7.69922 16.3726 7.9357 16.1361 8.22656 16.1361C8.51763 16.1361 8.7539 16.3722 8.7539 16.6635V20.8822Z" fill="#0B9EC7"/>
</svg>

<svg width="27" height="27" fill="none" xmlns="http://www.w3.org/2000/svg"><path d="M13.5 13.5a.528.528 0 100-1.056.528.528 0 000 1.055z" fill="#0B9EC7"/><path d="M24.89 9.28h-3.118l-4.797-6.6a1.582 1.582 0 00-2.748 1.568.548.548 0 00.04.063l3.763 4.97H8.97l3.763-4.97a.561.561 0 00.04-.062 1.581 1.581 0 00-2.748-1.569l-4.797 6.6H2.109A2.113 2.113 0 000 11.39c0 .917.595 1.716 1.434 1.999.09.069.201.11.323.11a.526.526 0 01.52.433l1.793 9.87a1.581 1.581 0 001.556 1.299h15.748a1.58 1.58 0 001.556-1.299l1.794-9.87a.526.526 0 01.52-.433.524.524 0 00.324-.112A2.115 2.115 0 0027 11.39c0-1.163-.946-2.11-2.11-2.11zm-9.755-5.57a.527.527 0 01.936-.486c.01.019.022.037.035.054l4.363 6.004h-1.116L15.135 3.71zm-4.239-.432a.558.558 0 00.035-.053.527.527 0 01.936.485L7.648 9.28H6.531l4.363-6.004zm13.996 9.168H15.61a.527.527 0 00-.527.527c0 .291.236.522.527.522h8.142a1.65 1.65 0 00-.064.244l-1.794 9.875a.527.527 0 01-.52.433H5.627a.527.527 0 01-.519-.433l-1.794-9.87a1.59 1.59 0 00-.064-.244h8.142a.527.527 0 100-1.054H2.109a1.056 1.056 0 010-2.11h22.782a1.056 1.056 0 010 2.11z" fill="#0B9EC7"/><path d="M18.773 22.464c.873 0 1.582-.71 1.582-1.582v-4.219a1.582 1.582 0 10-3.164 0v4.22c0 .872.71 1.581 1.582 1.581zm-.527-5.8a.528.528 0 011.055 0v4.218a.528.528 0 01-1.055 0v-4.219zM13.5 15.081c-.872 0-1.582.71-1.582 1.582v4.22c0 .872.71 1.581 1.582 1.581.872 0 1.582-.71 1.582-1.582v-4.219c0-.874-.708-1.582-1.582-1.582zm.527 5.801a.528.528 0 01-1.054 0v-4.219a.528.528 0 011.054 0v4.22zm-5.8-5.801c-.873 0-1.582.71-1.582 1.582v4.22c0 .872.71 1.581 1.582 1.581.872 0 1.582-.71 1.582-1.582v-4.219c0-.874-.708-1.582-1.582-1.582zm.527 5.801a.528.528 0 01-1.055 0v-4.219a.528.528 0 011.055 0v4.22z" fill="#0B9EC7"/></svg>
